X: 197
T: Skunk in the Collard Patch
B: canberra pickers and fiddlers
B: old time tunes update
B: tunes
M:2/4
L:1/8
Q: 1/4=100
K:G
V:1 
%N:ABC'd by Jim Kendrick
"G"Bd g2 b3 g | a2 g4 b2- | bage d2 ^A2 | B6 B2- | Bd g2 b3 g | a2 g4 g2- |
gedB "D7"A[AD][AF][AD] | "G"[G8B8]:||: G2BA GDBA | GDBc dBAF | G2 [D2B2]-[DB][Dc][DB][DA] |
"D7"[FA] [A2A2] [AB] [A2A2] (3DEF | "G"G2 BA GDBG | DGBc d2d2-| d^cdB "D7"A=cBA |"G"[G8B8] :|
% abcbook-tune_id 67a7d9ec48dedf56ee13e5fd
% abcbook-tune_composer_id 
% abcbook-link-0 https://www.youtube.com/watch?v=JdfX2Ch7w0E
% abcbook-link-title-0 Skunk In A Collard Patch
% abcbook-boost 0
% abcbook-difficulty 0
% abcbook-tags old time tunes
% abcbook-tablature 
% abcbook-transpose 
% abcbook-tuning GDAD
% abcbook-lastupdated 1739238136562
% abcbook-src-url 
% abcbook-soundfonts 
% abcbook-repeats 1


